X:56
T:Eileen O'Riordan's
C:Traditional
M:6/8
R:Slide
K:Edor
E2A ABA | G2A Bcd | efe dcB | A3 G2F |
E2A ABA | G2A Bcd | efe dcB |[1 A3 A2G :|[2 A3 A3 |]
|: e2e efe | d3 c2d | e2A ABA | G3 F2G |
E2A ABA | G2A Bcd | efe dcB |[1 A3 A3 :|[2 A3 A2G |]

%%newpage
%%scale .75
%%staffsep 30

